X: 78
T:Tobin's Jig
M:6/8
L:1/8
K:D
"D"DFA dcd|"A"ecA efg|"D"fdf "G"gfg|"A"ecA GFE|!
"D"DFA dcd|"A"ecA efg|"D"fdf "G"gec|"A"edd "D"d2D|!
"D"DFA dcd|"A"ecA efg|"D"[d3f3] "G"[B3g3]|"A"ecA GFE|!
"D"DFA dcd|"A"ecA efg|"D"f/g/af "G"gec|"A"edd "D"d2A||!
"D"dfa agf|"A"efg efg|"D"fdf "G"gfg|"A"ecA GFE|!
"D"DFA dcd|"A"ecA efg|"D"fdf "G"gec|"A"edd d2A|!
"D"dfa agf|"A"efg b3 |"D"fdf "G"gfg|"A"Ace gfe|!
"D"DFA dcd|"A"ecA efg|"D"faa "G"gec|"A"edd "D"[F3d3]||!

